src/lib/packages/icons/src/assets/line/layout-web-8.svg

<svg xmlns="http://www.w3.org/2000/svg" width="24" height="24" fill="none"><path fill="currentColor" d="M18 3.25H6C3.582 3.25 2.25 4.582 2.25 7v10c0 2.418 1.332 3.75 3.75 3.75h12c2.418 0 3.75-1.332 3.75-3.75V7c0-2.418-1.332-3.75-3.75-3.75ZM6 4.75h12c1.577 0 2.25.673 2.25 2.25v6.25H3.75V7c0-1.577.673-2.25 2.25-2.25Zm12 14.5H6c-1.577 0-2.25-.673-2.25-2.25v-2.25h16.5V17c0 1.577-.673 2.25-2.25 2.25Z"/></svg>

<svg width="24" height="24" viewBox="0 0 24 24" fill="none" xmlns="http://www.w3.org/2000/svg">
<path d="M18 3.25H6C3.582 3.25 2.25 4.582 2.25 7V17C2.25 19.418 3.582 20.75 6 20.75H18C20.418 20.75 21.75 19.418 21.75 17V7C21.75 4.582 20.418 3.25 18 3.25ZM6 4.75H18C19.577 4.75 20.25 5.423 20.25 7V13.25H3.75V7C3.75 5.423 4.423 4.75 6 4.75ZM18 19.25H6C4.423 19.25 3.75 18.577 3.75 17V14.75H20.25V17C20.25 18.577 19.577 19.25 18 19.25Z" fill="currentColor"/>
</svg>
